X: 1926
T: Thought I'd Lost You
C:David Johnson, Wingello, NSW
B: australian traditional tunes wiki
M:4/4
L:1/8
R: Schottische
Q: 1/4=100
K:Em
V:1 
e>d|"Am"c>A A>Bc2c>d|e>a a>b a>g e>d|"F"c>A A>B A2A>c|"C"g>e d>c "G"B2A>B|
"Am"c>A A>Bc2c>d|e>a a>b a>g e>d|"F"c>B A>G "Em"E2E>G|"G"B>A G>B "Am"A2A>B|
c2c>a "G"g>e d>c|B>d c>B "Am"A>G E>G|"F"=F>G A>F "C"E>F G>E|"Bb"D2D>E D2A>B|
"Am"c2c>a "G"g>e d>c|B>d c>B "Am"A>G E>G|"F"=F>G A>B c>d e>a|"G"g>e d>c "Am"A2 A/B/c/d/|
"Am"e>a a>^g a2-a>e|e>a a>^g a2-a>e|"Em"e>g g>f g2-g>e|e>g g>f g4|
"Am"A>G A>B c>B c>d|e>a a>^g a2-a>e|"G"e>g g>f g>e d>c|"D"A2 (3cBA "Am"A2||
% abcbook-tune_id 6342d5bee0e913c1636a447f


% abcbook-boost 0
% abcbook-tablature 
% abcbook-transpose 
% abcbook-lastupdated 1665324488287
% abcbook-soundfonts 
% abcbook-repeats 1
% NFF Book 2016

